X:7
T:Pavane: La Dona
C:Tylman Susato, Danserye, 1551
M:C|
L:1/4
K:C major
"G"d | "G"d2 "Dm"A"Gm"d | "Am"c3"Dm"A | "Am"cd e"Dm"f | "C"e3"F"f | "C"e"Dm"d "C"e"Dm"f | \
"Gm"g2 "F"f"C"e | "Dm"d/e/f/e/ "Bb"d^c/B/ | "A"^c2 z ::
"Dm"d | "C"ee "F"f/e/f/g/ | "F"ag "Dm"fe/d/ | "F"c"Gm Csus4"f2e | "F"f2 z ::\
"F"f |  "C"e3c | "Bb"d/c/d/e/ "F"f"C"e 
| "Dm"d"Am"c "Gm"_B2 | "F"A2 z"Am"c | "Dm"d"C"e "F"f"Em"g | \
"Am"a"G"g/f/ "C"e/f/"Gm"g/f/ |  "C"e/d/"D Asus4"d2^c |  [1 "D"d2 z :|]  [2 "D"d4 :| 

